X: 21871
T: Kiss Me Fast, My Minnie's Coming
R: jig
M: 6/8
K: Dmixolydian
E|:D2 A F2 A|TE2 c GEC|D2 A F2 A|D2 A AFD|
{F/}GBG FAF|TE2 F {F/}GEC|d^cB Afd|D2 A AFD:|
|:{^c/}d2 g (f/g/a)f|(e2 f) gec|{^c/}d2 g (f/g/a)f|{^c/}d2 a afd|
gbg faf|(e2 f) gec|1 d^cB Afd|D2 A AFD:|2 agf gfe|{^c/}(d3 d2)||
"last time"{^c/}dAF D2||

